source/img/icons/icon-post_office.svg

<svg
  width="24"
  height="24"
  viewBox="0 0 24 24"
  fill="none"
  xmlns="http://www.w3.org/2000/svg"
>
  <path
    fill-rule="evenodd"
    clip-rule="evenodd"
    d="M3.00977 5.83789C3.00977 5.28561 3.45748 4.83789 4.00977 4.83789H20C20.5523 4.83789 21 5.28561 21 5.83789V17.1621C21 18.2667 20.1046 19.1621 19 19.1621H5C3.89543 19.1621 3 18.2667 3 17.1621V6.16211C3 6.11449 3.00333 6.06765 3.00977 6.0218V5.83789ZM5 8.06165V17.1621H19V8.06199L14.1215 12.9405C12.9499 14.1121 11.0504 14.1121 9.87885 12.9405L5 8.06165ZM6.57232 6.80554H17.428L12.7073 11.5263C12.3168 11.9168 11.6836 11.9168 11.2931 11.5263L6.57232 6.80554Z"
    fill="currentColor"
  />
</svg>

<svg width="24" height="24" fill="none" xmlns="http://www.w3.org/2000/svg"><path fill-rule="evenodd" clip-rule="evenodd" d="M3.01 5.838a1 1 0 011-1H20a1 1 0 011 1v11.324a2 2 0 01-2 2H5a2 2 0 01-2-2v-11c0-.048.003-.094.01-.14v-.184zM5 8.062v9.1h14v-9.1l-4.879 4.879a3 3 0 01-4.242 0L5 8.06zm1.572-1.256h10.856l-4.72 4.72a1 1 0 01-1.415 0l-4.72-4.72z" fill="currentColor"/></svg>
